X: 14571
T: Gan Ainm
R: reel
M: 4/4
K: Dminor
ADDE F2 ED|ECCD EFGB|ADDE F2 ED|EAGE FD D2|
ADDE F2 ED|ECCD EFGB|AFGE FEDC|A,CDE D3 A|
ABcB AF (3DEF|ECCD EFGB|Adce dcAF|GFEG FDDA|
ABcB Adfa|gecd efge|fdec dcAF|GECE D3 A|

